Yaru++/mimetypes/16/application-pgp-keys.svg

<svg height="16" width="16" xmlns="http://www.w3.org/2000/svg">
  <path d="m7.9999996-.00000034c-2.7621246 0-4.9999996 2.23787444-4.9999996 5.00000004v2h-1v9.0000003h11.999999v-9.0000003h-1v-2c0-2.7621256-2.237874-5.00000004-4.9999994-5.00000004zm0 1.00000004c2.2220154 0 3.9999994 1.7780513 3.9999994 4v2h-7.999999v-2c0-2.2219487 1.778051-4 3.9999996-4zm-4.9999996 7.0000001h9.999999v7.0000002h-9.999999zm5.9999996 1.75-2 .2500002v3h2z" fill="#808080"/>
</svg>

<svg xmlns="http://www.w3.org/2000/svg" width="16" height="16" version="1.1">
 <path style="fill:#808080" d="M 7.9999996,-3.4e-7 C 5.237875,-3.4e-7 3,2.2378741 3,4.9999997 v 2 H 2 V 16 H 13.999999 V 6.9999997 h -1 v -2 C 12.999999,2.2378741 10.762125,-3.4e-7 7.9999996,-3.4e-7 Z m 0,1.00000004 c 2.2220154,0 3.9999994,1.7780513 3.9999994,4 v 2 H 4 v -2 c 0,-2.2219487 1.778051,-4 3.9999996,-4 z M 3,7.9999998 h 9.999999 V 15 H 3 Z m 5.9999996,1.75 -2,0.2500002 v 3 h 2 z"/>
</svg>
